X:2566
T:Cantar de Ronda (CT 293)
R:Ronda
C:Tradicional
S:Música Tradicional Asturiana, (C) Tello & Tito. Asturies, 2001.
S:http://pagina.de/MusTradAst <telloytito@asturies.org>
N:Canción de Ronda, dictada por Leandra González Zuazua, de cincuenta años, de Uviéu, quien dice la aprendió en Grau siendo niña.
O:Grau
A:Asturies
Z:Cancioneru de Torner 293
M:2/4
L:1/8
Q:1/4=76
W:¡Cuántos hai que te lo dirán,
W:prenda del alma,
W:lo que te quise, serrana!
W:Pero tu padre nun quiso
W:y el porcaz dixo
W:que non yera mía
W:la pradera y la casería.
W:Y ahora que te empapele
W:y te güelva el fuelle,
W:que nun te quiero
W:más que te carguen a dinero.
K:G
GA
|GF/G/ BA|GF/G/ B(c/B/4A/4)|B2 BB/c/|de/d/ cA|G2 GA|
 GF/G/ BA|GF/G/ BA|GF/G/ B/B/(c/B/4A/4)|B2 BB/c/|de/d/ cA|G2 GA|
 GF/G/ BA|GF/G/ BA|GF/G/ B(c/B/4A/4)|B2 BB/c/|de/d/ cA|G2 ||


